icons/editor/indent-right.svg

<svg width="32" height="32" viewBox="0 0 32 32" fill="none" xmlns="http://www.w3.org/2000/svg">
<path fill-rule="evenodd" clip-rule="evenodd" d="M16.0002 28H18.0002V4H16.0002V28ZM12.0002 8H2.00017V6H12.0002V8ZM5.00017 14H12.0002V12H5.00017V14ZM12.0002 20H2.00017V18H12.0002V20ZM12.0002 26H5.00017V24H12.0002V26ZM21.7931 16.7071L21.086 16L21.7931 15.2929L27.7928 9.29314L29.207 10.7073L23.9144 16L29.207 21.2926L27.7928 22.7069L21.7931 16.7071Z" fill="black"/>
</svg>

<svg width="32" height="32" viewBox="0 0 32 32" xmlns="http://www.w3.org/2000/svg">
    <path fill-rule="evenodd" d="M16 28h2V4h-2v24zM12 8H2V6h10v2zm-7 6h7v-2H5v2zm7 6H2v-2h10v2zm0 6H5v-2h7v2zm9.793-9.293L21.086 16l.707-.707 6-6 1.414 1.414L23.914 16l5.293 5.293-1.414 1.414-6-6z"/>
</svg>
